;FLAVOR:Marlin
;TIME:17693
;Filament used: 23.0798m
;Layer height: 0.16
;MINX:73.599
;MINY:72.099
;MINZ:0.3
;MAXX:146.4
;MAXY:147.899
;MAXZ:10.06
;Generated with Cura_SteamEngine 4.12.1
M140 S50
M105
M190 S50
M104 S210
M105
M109 S210
M82 ;absolute extrusion mode
; Ender 3 Custom Start G-code
G92 E0 ; Reset Extruder
G28 ; Home all axes
G1 Z2.0 F3000 ; Move Z Axis up little to prevent scratching of Heat Bed
G1 X0.1 Y20 Z0.3 F5000.0 ; Move to start position
G1 X0.1 Y200.0 Z0.3 F1500.0 E15 ; Draw the first line
G1 X0.4 Y200.0 Z0.3 F5000.0 ; Move to side a little
G1 X0.4 Y20 Z0.3 F1500.0 E30 ; Draw the second line
G92 E0 ; Reset Extruder
G1 Z2.0 F3000 ; Move Z Axis up little to prevent scratching of Heat Bed
G1 X5 Y20 Z0.3 F5000.0 ; Move over to prevent blob squish
G92 E0
G92 E0
G1 F3000 E-6.5
;LAYER_COUNT:62
;LAYER:0
M107
M204 S750
;MESH:TestLevel.stl
G0 F6000 X73.797 Y72.1 Z0.3
M204 S500
;TYPE:FILL
G1 F3000 E0
G1 F1200 X146.4 Y144.703 E5.12253
M204 S750
G0 F6000 X146.4 Y145.268
M204 S500
G1 F1200 X73.599 Y72.467 E10.25904
M204 S750
G0 F6000 X73.599 Y73.033
M204 S500
G1 F1200 X146.4 Y145.834 E15.39554
M204 S750
G0 F6000 X146.4 Y146.4
M204 S500
G1 F1200 X73.599 Y73.599 E20.53205
M204 S750
G0 F6000 X73.599 Y74.164
M204 S500
G1 F1200 X146.4 Y146.965 E25.66855
M204 S750
G0 F6000 X146.4 Y147.531
M204 S500
G1 F1200 X73.599 Y74.73 E30.80505
M204 S750
G0 F6000 X73.599 Y75.296
M204 S500
G1 F1200 X146.202 Y147.899 E35.92759
M204 S750
G0 F6000 X145.636 Y147.899
M204 S500
G1 F1200 X73.599 Y75.861 E41.01022
M204 S750
G0 F6000 X73.599 Y76.427
M204 S500
G1 F1200 X145.07 Y147.899 E46.05292
M204 S750
G0 F6000 X144.505 Y147.899
M204 S500
G1 F1200 X73.599 Y76.993 E51.05572
M204 S750
G0 F6000 X73.599 Y77.559
M204 S500
G1 F1200 X143.939 Y147.899 E56.01859
M204 S750
G0 F6000 X143.373 Y147.899
M204 S500
G1 F1200 X73.599 Y78.124 E60.94156
M204 S750
G0 F6000 X73.599 Y78.69
M204 S500
G1 F1200 X142.807 Y147.899 E65.82459
M204 S750
G0 F6000 X142.242 Y147.899
M204 S500
G1 F1200 X73.599 Y79.256 E70.66773
M204 S750
G0 F6000 X73.599 Y79.821
M204 S500
G1 F1200 X141.676 Y147.899 E75.47096
M204 S750
G0 F6000 X141.11 Y147.899
M204 S500
G1 F1200 X73.599 Y80.387 E80.23426
M204 S750
G0 F6000 X73.599 Y80.953
M204 S500
G1 F1200 X140.545 Y147.899 E84.95766
M204 S750
G0 F6000 X139.979 Y147.899
M204 S500
G1 F1200 X73.599 Y81.518 E89.64117
M204 S750
G0 F6000 X73.599 Y82.084
M204 S500
G1 F1200 X139.413 Y147.899 E94.28473
M204 S750
G0 F6000 X138.848 Y147.899
M204 S500
G1 F1200 X73.599 Y82.65 E98.8884
M204 S750
G0 F6000 X73.599 Y83.215
M204 S500
G1 F1200 X138.282 Y147.899 E103.45217
M204 S750
G0 F6000 X137.716 Y147.899
M204 S500
G1 F1200 X73.599 Y83.781 E107.97601
M204 S750
G0 F6000 X73.599 Y84.347
M204 S500
G1 F1200 X137.151 Y147.899 E112.45995
M204 S750
G0 F6000 X136.585 Y147.899
M204 S500
G1 F1200 X73.599 Y84.912 E116.90398
M204 S750
G0 F6000 X73.599 Y85.478
M204 S500
G1 F1200 X136.019 Y147.899 E121.30809
M204 S750
G0 F6000 X135.454 Y147.899
M204 S500
G1 F1200 X73.599 Y86.044 E125.67229
M204 S750
G0 F6000 X73.599 Y86.609
M204 S500
G1 F1200 X134.888 Y147.899 E129.9966
M204 S750
G0 F6000 X134.322 Y147.899
M204 S500
G1 F1200 X73.599 Y87.175 E134.28097
M204 S750
G0 F6000 X73.599 Y87.741
M204 S500
G1 F1200 X133.757 Y147.899 E138.52544
M204 S750
G0 F6000 X133.191 Y147.899
M204 S500
G1 F1200 X73.599 Y88.307 E142.72998
M204 S750
G0 F6000 X73.599 Y88.872
M204 S500
G1 F1200 X132.625 Y147.899 E146.89462
M204 S750
G0 F6000 X132.059 Y147.899
M204 S500
G1 F1200 X73.599 Y89.438 E151.01932
M204 S750
G0 F6000 X73.599 Y90.004
M204 S500
G1 F1200 X131.494 Y147.899 E155.10413
M204 S750
G0 F6000 X130.928 Y147.899
M204 S500
G1 F1200 X73.599 Y90.569 E159.14903
M204 S750
G0 F6000 X73.599 Y91.135
M204 S500
G1 F1200 X130.362 Y147.899 E163.154
M204 S750
G0 F6000 X129.797 Y147.899
M204 S500
G1 F1200 X73.599 Y91.701 E167.11908
M204 S750
G0 F6000 X73.599 Y92.266
M204 S500
G1 F1200 X129.231 Y147.899 E171.04425
M204 S750
G0 F6000 X128.665 Y147.899
M204 S500
G1 F1200 X73.599 Y92.832 E174.92949
M204 S750
G0 F6000 X73.599 Y93.398
M204 S500
G1 F1200 X128.1 Y147.899 E178.77483
M204 S750
G0 F6000 X127.534 Y147.899
M204 S500
G1 F1200 X73.599 Y93.963 E182.58027
M204 S750
G0 F6000 X73.599 Y94.529
M204 S500
G1 F1200 X126.968 Y147.899 E186.34577
M204 S750
G0 F6000 X126.403 Y147.899
M204 S500
G1 F1200 X73.599 Y95.095 E190.07138
M204 S750
G0 F6000 X73.599 Y95.66
M204 S500
G1 F1200 X125.837 Y147.899 E193.75709
M204 S750
G0 F6000 X125.271 Y147.899
M204 S500
G1 F1200 X73.599 Y96.226 E197.40286
M204 S750
G0 F6000 X73.599 Y96.792
M204 S500
G1 F1200 X124.706 Y147.899 E201.00874
M204 S750
G0 F6000 X124.14 Y147.899
M204 S500
G1 F1200 X73.599 Y97.357 E204.57472
M204 S750
G0 F6000 X73.599 Y97.923
M204 S500
G1 F1200 X123.574 Y147.899 E208.10076
M204 S750
G0 F6000 X123.009 Y147.899
M204 S500
G1 F1200 X73.599 Y98.489 E211.5869
M204 S750
G0 F6000 X73.599 Y99.055
M204 S500
G1 F1200 X122.443 Y147.899 E215.03311
M204 S750
G0 F6000 X121.877 Y147.899
M204 S500
G1 F1200 X73.599 Y99.62 E218.43942
M204 S750
G0 F6000 X73.599 Y100.186
M204 S500
G1 F1200 X121.311 Y147.899 E221.80579
M204 S750
G0 F6000 X120.746 Y147.899
M204 S500
G1 F1200 X73.599 Y100.752 E225.13227
M204 S750
G0 F6000 X73.599 Y101.317
M204 S500
G1 F1200 X120.18 Y147.899 E228.41884
M204 S750
G0 F6000 X119.614 Y147.899
M204 S500
G1 F1200 X73.599 Y101.883 E231.66548
M204 S750
G0 F6000 X73.599 Y102.449
M204 S500
G1 F1200 X119.049 Y147.899 E234.87223
M204 S750
G0 F6000 X118.483 Y147.899
M204 S500
G1 F1200 X73.599 Y103.014 E238.03907
M204 S750
G0 F6000 X73.599 Y103.58
M204 S500
G1 F1200 X117.917 Y147.899 E241.16598
M204 S750
G0 F6000 X117.352 Y147.899
M204 S500
G1 F1200 X73.599 Y104.146 E244.25299
M204 S750
G0 F6000 X73.599 Y104.711
M204 S500
G1 F1200 X116.786 Y147.899 E247.3001
M204 S750
G0 F6000 X116.22 Y147.899
M204 S500
G1 F1200 X73.599 Y105.277 E250.30728
M204 S750
G0 F6000 X73.599 Y105.843
M204 S500
G1 F1200 X115.655 Y147.899 E253.27456
M204 S750
G0 F6000 X115.089 Y147.899
M204 S500
G1 F1200 X73.599 Y106.408 E256.20194
M204 S750
G0 F6000 X73.599 Y106.974
M204 S500
G1 F1200 X114.523 Y147.899 E259.08938
M204 S750
G0 F6000 X113.958 Y147.899
M204 S500
G1 F1200 X73.599 Y107.54 E261.93693
M204 S750
G0 F6000 X73.599 Y108.106
M204 S500
G1 F1200 X113.392 Y147.899 E264.74454
M204 S750
G0 F6000 X112.826 Y147.899
M204 S500
G1 F1200 X73.599 Y108.671 E267.51225
M204 S750
G0 F6000 X73.599 Y109.237
M204 S500
G1 F1200 X112.26 Y147.899 E270.24003
M204 S750
G0 F6000 X111.695 Y147.899
M204 S500
G1 F1200 X73.599 Y109.803 E272.92791
M204 S750
G0 F6000 X73.599 Y110.368
M204 S500
G1 F1200 X111.129 Y147.899 E275.57589
M204 S750
G0 F6000 X110.563 Y147.899
M204 S500
G1 F1200 X73.599 Y110.934 E278.18393
M204 S750
G0 F6000 X73.599 Y111.5
M204 S500
G1 F1200 X109.998 Y147.899 E280.75208
M204 S750
G0 F6000 X109.432 Y147.899
M204 S500
G1 F1200 X73.599 Y112.065 E283.28032
M204 S750
G0 F6000 X73.599 Y112.631
M204 S500
G1 F1200 X108.866 Y147.899 E285.76864
M204 S750
G0 F6000 X108.301 Y147.899
M204 S500
G1 F1200 X73.599 Y113.197 E288.21705
M204 S750
G0 F6000 X73.599 Y113.762
M204 S500
G1 F1200 X107.735 Y147.899 E290.62556
M204 S750
G0 F6000 X107.169 Y147.899
M204 S500
G1 F1200 X73.599 Y114.328 E292.99414
M204 S750
G0 F6000 X73.599 Y114.894
M204 S500
G1 F1200 X106.604 Y147.899 E295.32283
M204 S750
G0 F6000 X106.038 Y147.899
M204 S500
G1 F1200 X73.599 Y115.459 E297.61161
M204 S750
G0 F6000 X73.599 Y116.025
M204 S500
G1 F1200 X105.472 Y147.899 E299.86045
M204 S750
G0 F6000 X104.907 Y147.899
M204 S500
G1 F1200 X73.599 Y116.591 E302.0694
M204 S750
G0 F6000 X73.599 Y117.156
M204 S500
G1 F1200 X104.341 Y147.899 E304.23845
M204 S750
G0 F6000 X103.775 Y147.899
M204 S500
G1 F1200 X73.599 Y117.722 E306.36757
M204 S750
G0 F6000 X73.599 Y118.288
M204 S500
G1 F1200 X103.21 Y147.899 E308.45678
M204 S750
G0 F6000 X102.644 Y147.899
M204 S500
G1 F1200 X73.599 Y118.854 E310.50607
M204 S750
G0 F6000 X73.599 Y119.419
M204 S500
G1 F1200 X102.078 Y147.899 E312.51545
M204 S750
G0 F6000 X101.512 Y147.899
M204 S500
G1 F1200 X73.599 Y119.985 E314.4849
M204 S750
G0 F6000 X73.599 Y120.551
M204 S500
G1 F1200 X100.947 Y147.899 E316.41445
M204 S750
G0 F6000 X100.381 Y147.899
M204 S500
G1 F1200 X73.599 Y121.116 E318.3041
M204 S750
G0 F6000 X73.599 Y121.682
M204 S500
G1 F1200 X99.815 Y147.899 E320.15381
M204 S750
G0 F6000 X99.25 Y147.899
M204 S500
G1 F1200 X73.599 Y122.248 E321.96363
M204 S750
G0 F6000 X73.599 Y122.813
M204 S500
G1 F1200 X98.684 Y147.899 E323.73354
M204 S750
G0 F6000 X98.118 Y147.899
M204 S500
G1 F1200 X73.599 Y123.379 E325.46353
M204 S750
G0 F6000 X73.599 Y123.945
M204 S500
G1 F1200 X97.553 Y147.899 E327.15361
M204 S750
G0 F6000 X96.987 Y147.899
M204 S500
G1 F1200 X73.599 Y124.51 E328.8038
M204 S750
G0 F6000 X73.599 Y125.076
M204 S500
G1 F1200 X96.421 Y147.899 E330.41405
M204 S750
G0 F6000 X95.856 Y147.899
M204 S500
G1 F1200 X73.599 Y125.642 E331.9844
M204 S750
G0 F6000 X73.599 Y126.207
M204 S500
G1 F1200 X95.29 Y147.899 E333.51485
M204 S750
G0 F6000 X94.724 Y147.899
M204 S500
G1 F1200 X73.599 Y126.773 E335.00537
M204 S750
G0 F6000 X73.599 Y127.339
M204 S500
G1 F1200 X94.159 Y147.899 E336.45599
M204 S750
G0 F6000 X93.593 Y147.899
M204 S500
G1 F1200 X73.599 Y127.905 E337.86667
M204 S750
G0 F6000 X73.599 Y128.47
M204 S500
G1 F1200 X93.027 Y147.899 E339.23746
M204 S750
G0 F6000 X92.461 Y147.899
M204 S500
G1 F1200 X73.599 Y129.036 E340.56831
M204 S750
G0 F6000 X73.599 Y129.602
M204 S500
G1 F1200 X91.896 Y147.899 E341.85926
M204 S750
G0 F6000 X91.33 Y147.899
M204 S500
G1 F1200 X73.599 Y130.167 E343.11032
M204 S750
G0 F6000 X73.599 Y130.733
M204 S500
G1 F1200 X90.764 Y147.899 E344.32143
M204 S750
G0 F6000 X90.199 Y147.899
M204 S500
G1 F1200 X73.599 Y131.299 E345.49265
M204 S750
G0 F6000 X73.599 Y131.864
M204 S500
G1 F1200 X89.633 Y147.899 E346.62397
M204 S750
G0 F6000 X89.067 Y147.899
M204 S500
G1 F1200 X73.599 Y132.43 E347.71536
M204 S750
G0 F6000 X73.599 Y132.996
M204 S500
G1 F1200 X88.502 Y147.899 E348.76685
M204 S750
G0 F6000 X87.936 Y147.899
M204 S500
G1 F1200 X73.599 Y133.561 E349.77844
M204 S750
G0 F6000 X73.599 Y134.127
M204 S500
G1 F1200 X87.37 Y147.899 E350.75009
M204 S750
G0 F6000 X86.805 Y147.899
M204 S500
G1 F1200 X73.599 Y134.693 E351.68184
M204 S750
G0 F6000 X73.599 Y135.258
M204 S500
G1 F1200 X86.239 Y147.899 E352.5737
M204 S750
G0 F6000 X85.673 Y147.899
M204 S500
G1 F1200 X73.599 Y135.824 E353.42562
M204 S750
G0 F6000 X73.599 Y136.39
M204 S500
G1 F1200 X85.108 Y147.899 E354.23764
M204 S750
G0 F6000 X84.542 Y147.899
M204 S500
G1 F1200 X73.599 Y136.955 E355.00977
M204 S750
G0 F6000 X73.599 Y137.521
M204 S500
G1 F1200 X83.976 Y147.899 E355.74196
M204 S750
G0 F6000 X83.411 Y147.899
M204 S500
G1 F1200 X73.599 Y138.087 E356.43424
M204 S750
G0 F6000 X73.599 Y138.653
M204 S500
G1 F1200 X82.845 Y147.899 E357.0866
M204 S750
G0 F6000 X82.279 Y147.899
M204 S500
G1 F1200 X73.599 Y139.218 E357.69906
M204 S750
G0 F6000 X73.599 Y139.784
M204 S500
G1 F1200 X81.713 Y147.899 E358.27158
M204 S750
G0 F6000 X81.148 Y147.899
M204 S500
G1 F1200 X73.599 Y140.35 E358.8042
M204 S750
G0 F6000 X73.599 Y140.915
M204 S500
G1 F1200 X80.582 Y147.899 E359.29692
M204 S750
G0 F6000 X80.016 Y147.899
M204 S500
G1 F1200 X73.599 Y141.481 E359.74971
M204 S750
G0 F6000 X73.599 Y142.047
M204 S500
G1 F1200 X79.451 Y147.899 E360.1626
M204 S750
G0 F6000 X78.885 Y147.899
M204 S500
G1 F1200 X73.599 Y142.612 E360.53559
M204 S750
G0 F6000 X73.599 Y143.178
M204 S500
G1 F1200 X78.319 Y147.899 E360.86865
M204 S750
G0 F6000 X77.754 Y147.899
M204 S500
G1 F1200 X73.599 Y143.744 E361.16181
M204 S750
G0 F6000 X73.599 Y144.309
M204 S500
G1 F1200 X77.188 Y147.899 E361.41507
M204 S750
G0 F6000 X76.622 Y147.899
M204 S500
G1 F1200 X73.599 Y144.875 E361.62839
M204 S750
G0 F6000 X73.599 Y145.441
M204 S500
G1 F1200 X76.057 Y147.899 E361.80182
M204 S750
G0 F6000 X75.491 Y147.899
M204 S500
G1 F1200 X73.599 Y146.006 E361.93534
M204 S750
G0 F6000 X73.599 Y146.572
M204 S500
G1 F1200 X74.925 Y147.899 E362.02894
M204 S750
G0 F6000 X74.36 Y147.899
M204 S500
G1 F1200 X73.599 Y147.138 E362.08263
M204 S750
G0 F6000 X73.599 Y147.703
M204 S500
G1 F1200 X73.794 Y147.899 E362.09642
M204 S750
G1 F3000 E355.59642
G0 F6000 X146.4 Y144.137
M204 S500
G1 F3000 E362.09642
G1 F1200 X74.362 Y72.1 E367.17906
M204 S750
G0 F6000 X74.928 Y72.1
M204 S500
G1 F1200 X146.4 Y143.571 E372.22176
M204 S750
G0 F6000 X146.4 Y143.005
M204 S500
G1 F1200 X75.494 Y72.1 E377.22452
M204 S750
G0 F6000 X76.059 Y72.1
M204 S500
G1 F1200 X146.4 Y142.44 E382.18742
M204 S750
G0 F6000 X146.4 Y141.874
M204 S500
G1 F1200 X76.625 Y72.1 E387.11039
M204 S750
G0 F6000 X77.191 Y72.1
M204 S500
G1 F1200 X146.4 Y141.308 E391.99343
M204 S750
G0 F6000 X146.4 Y140.743
M204 S500
G1 F1200 X77.756 Y72.1 E396.8366
M204 S750
G0 F6000 X78.322 Y72.1
M204 S500
G1 F1200 X146.4 Y140.177 E401.63983
M204 S750
G0 F6000 X146.4 Y139.611
M204 S500
G1 F1200 X78.888 Y72.1 E406.40313
M204 S750
G0 F6000 X79.454 Y72.1
M204 S500
G1 F1200 X146.4 Y139.046 E411.12653
M204 S750
G0 F6000 X146.4 Y138.48
M204 S500
G1 F1200 X80.019 Y72.1 E415.81004
M204 S750
G0 F6000 X80.585 Y72.1
M204 S500
G1 F1200 X146.4 Y137.914 E420.45361
M204 S750
G0 F6000 X146.4 Y137.349
M204 S500
G1 F1200 X81.151 Y72.1 E425.05727
M204 S750
G0 F6000 X81.716 Y72.1
M204 S500
G1 F1200 X146.4 Y136.783 E429.62104
M204 S750
G0 F6000 X146.4 Y136.217
M204 S500
G1 F1200 X82.282 Y72.1 E434.14488
M204 S750
G0 F6000 X82.848 Y72.1
M204 S500
G1 F1200 X146.4 Y135.652 E438.62882
M204 S750
G0 F6000 X146.4 Y135.086
M204 S500
G1 F1200 X83.413 Y72.1 E443.07286
M204 S750
G0 F6000 X83.979 Y72.1
M204 S500
G1 F1200 X146.4 Y134.52 E447.47696
M204 S750
G0 F6000 X146.4 Y133.955
M204 S500
G1 F1200 X84.545 Y72.1 E451.84116
M204 S750
G0 F6000 X85.11 Y72.1
M204 S500
G1 F1200 X146.4 Y133.389 E456.16547
M204 S750
G0 F6000 X146.4 Y132.823
M204 S500
G1 F1200 X85.676 Y72.1 E460.44984
M204 S750
G0 F6000 X86.242 Y72.1
M204 S500
G1 F1200 X146.4 Y132.257 E464.69428
M204 S750
G0 F6000 X146.4 Y131.692
M204 S500
G1 F1200 X86.807 Y72.1 E468.89885
M204 S750
G0 F6000 X87.373 Y72.1
M204 S500
G1 F1200 X146.4 Y131.126 E473.06349
M204 S750
G0 F6000 X146.4 Y130.56
M204 S500
G1 F1200 X87.939 Y72.1 E477.18819
M204 S750
G0 F6000 X88.505 Y72.1
M204 S500
G1 F1200 X146.4 Y129.995 E481.273
M204 S750
G0 F6000 X146.4 Y129.429
M204 S500
G1 F1200 X89.07 Y72.1 E485.3179
M204 S750
G0 F6000 X89.636 Y72.1
M204 S500
G1 F1200 X146.4 Y128.863 E489.32287
M204 S750
G0 F6000 X146.4 Y128.298
M204 S500
G1 F1200 X90.202 Y72.1 E493.28795
M204 S750
G0 F6000 X90.767 Y72.1
M204 S500
G1 F1200 X146.4 Y127.732 E497.21312
M204 S750
G0 F6000 X146.4 Y127.166
M204 S500
G1 F1200 X91.333 Y72.1 E501.09836
M204 S750
G0 F6000 X91.899 Y72.1
M204 S500
G1 F1200 X146.4 Y126.601 E504.9437
M204 S750
G0 F6000 X146.4 Y126.035
M204 S500
G1 F1200 X92.464 Y72.1 E508.74914
M204 S750
G0 F6000 X93.03 Y72.1
M204 S500
G1 F1200 X146.4 Y125.469 E512.51465
M204 S750
G0 F6000 X146.4 Y124.904
M204 S500
G1 F1200 X93.596 Y72.1 E516.24025
M204 S750
G0 F6000 X94.161 Y72.1
M204 S500
G1 F1200 X146.4 Y124.338 E519.92596
M204 S750
G0 F6000 X146.4 Y123.772
M204 S500
G1 F1200 X94.727 Y72.1 E523.57174
M204 S750
G0 F6000 X95.293 Y72.1
M204 S500
G1 F1200 X146.4 Y123.206 E527.17757
M204 S750
G0 F6000 X146.4 Y122.641
M204 S500
G1 F1200 X95.858 Y72.1 E530.74355
M204 S750
G0 F6000 X96.424 Y72.1
M204 S500
G1 F1200 X146.4 Y122.075 E534.26959
M204 S750
